assets/icons/icon_turbo_6.svg

<svg width="30" height="30" viewBox="0 0 30 30" fill="none" xmlns="http://www.w3.org/2000/svg">
<g clip-path="url(#clip0_2048_877)">
<path d="M11.0411 23.4912C6.70591 21.0917 5.21062 15.4757 7.70277 10.955C8.49186 9.53308 9.63095 8.33614 11.0121 7.47763L9.99207 10.0277C9.95452 10.1139 9.9348 10.2067 9.93411 10.3006C9.93343 10.3946 9.95178 10.4877 9.98807 10.5744C10.0244 10.661 10.0778 10.7394 10.1453 10.8049C10.2127 10.8703 10.2927 10.9214 10.3804 10.955C10.4649 10.9878 10.555 11.0036 10.6456 11.0015C10.7361 10.9994 10.8254 10.9795 10.9083 10.9429C10.9912 10.9063 11.0661 10.8538 11.1286 10.7882C11.1912 10.7227 11.2402 10.6454 11.2729 10.5609L12.8436 6.61986C14.0222 6.19717 15.2773 6.03024 16.5254 6.13017C17.7735 6.2301 18.986 6.5946 20.0824 7.19943C24.4118 9.58147 25.9071 15.1917 23.4439 19.6892C20.9807 24.1866 15.3705 25.8906 11.0411 23.4912ZM20.7489 5.97074C19.4698 5.26664 18.0543 4.84582 16.5984 4.73682C15.1424 4.62782 13.68 4.8332 12.3104 5.33901L8.18382 4.03498C8.09744 4.00702 8.00639 3.99639 7.91589 4.0037C7.8254 4.01102 7.73724 4.03612 7.65647 4.07758C7.5757 4.11905 7.50391 4.17605 7.44522 4.24532C7.38653 4.31459 7.34209 4.39477 7.31446 4.48125C7.28721 4.56952 7.27812 4.66239 7.28775 4.75426C7.29737 4.84614 7.32551 4.93511 7.37046 5.01581C7.41542 5.09652 7.47626 5.16727 7.54931 5.22382C7.62236 5.28036 7.70611 5.32152 7.7955 5.34481L10.5079 6.20837C8.83889 7.19711 7.4643 8.61372 6.52625 10.3117C5.19291 12.8209 4.89079 15.7512 5.68411 18.4797C6.47743 21.2081 8.30363 23.5196 10.7745 24.9227C15.6255 27.6119 21.7052 25.6066 24.603 20.3557C27.5009 15.1917 25.7622 8.74109 20.7489 5.97074Z" fill="white"/>
<path d="M15.3995 17.1336C15.2365 17.3034 15.04 17.4374 14.8225 17.5272C14.605 17.617 14.3713 17.6606 14.136 17.6552C13.8373 17.6796 13.5402 17.5929 13.3014 17.4118C12.5596 16.3396 13.1391 15.6731 13.9158 15.0124L14.0896 14.8559C14.5533 14.427 17.5671 11.9581 19.3058 10.683C18.2046 12.7231 15.9848 16.4787 15.4053 17.1336M20.3896 8.98486C19.6071 8.98486 13.5333 14.1257 13.4811 14.201L13.3188 14.3459C12.7045 14.8849 11.2729 16.1426 12.5886 17.9914L12.6233 18.0377C12.8233 18.2314 13.0604 18.3826 13.3204 18.4822C13.5804 18.5818 13.8578 18.6278 14.136 18.6173C14.4994 18.6211 14.8596 18.5493 15.1938 18.4067C15.528 18.264 15.8289 18.0535 16.0776 17.7885C17.0729 16.391 17.9844 14.9357 18.8073 13.4302C21.0503 9.57023 20.946 9.44272 20.7257 9.16453C20.6389 9.06309 20.5165 8.99879 20.3838 8.98486" fill="white"/>
<path d="M7 21C7.79112 21 8.56448 20.7654 9.22228 20.3259C9.88008 19.8864 10.3928 19.2616 10.6955 18.5307C10.9983 17.7998 11.0775 16.9956 10.9231 16.2196C10.7688 15.4437 10.3878 14.731 9.82843 14.1716C9.26902 13.6122 8.55628 13.2312 7.78036 13.0769C7.00444 12.9225 6.20017 13.0017 5.46927 13.3045C4.73836 13.6072 4.11365 14.1199 3.67412 14.7777C3.2346 15.4355 3 16.2089 3 17C3 18.0609 3.42143 19.0783 4.17157 19.8284C4.92172 20.5786 5.93913 21 7 21Z" fill="white"/>
<path d="M7 21C7.79112 21 8.56448 20.7654 9.22228 20.3259C9.88008 19.8864 10.3928 19.2616 10.6955 18.5307C10.9983 17.7998 11.0775 16.9956 10.9231 16.2196C10.7688 15.4437 10.3878 14.731 9.82843 14.1716C9.26902 13.6122 8.55628 13.2312 7.78036 13.0769C7.00444 12.9225 6.20017 13.0017 5.46927 13.3045C4.73836 13.6072 4.11365 14.1199 3.67412 14.7777C3.2346 15.4355 3 16.2089 3 17C3 17.5253 3.10346 18.0454 3.30448 18.5307C3.5055 19.016 3.80014 19.457 4.17157 19.8284C4.92172 20.5786 5.93913 21 7 21Z" stroke="#414047" stroke-width="2.11543"/>
<path d="M6.85067 19.0533C6.51289 19.0533 6.22311 18.9822 5.98133 18.84C5.73956 18.6942 5.55467 18.4844 5.42667 18.2107C5.29867 17.9369 5.23467 17.5991 5.23467 17.1973C5.23467 16.7707 5.31111 16.4098 5.464 16.1147C5.62044 15.8196 5.83556 15.5956 6.10933 15.4427C6.38667 15.2898 6.70489 15.2133 7.064 15.2133C7.25244 15.2133 7.432 15.2329 7.60267 15.272C7.77689 15.3111 7.92444 15.3716 8.04533 15.4533L7.78933 15.976C7.68622 15.9084 7.57422 15.8622 7.45333 15.8373C7.336 15.8089 7.21156 15.7947 7.08 15.7947C6.728 15.7947 6.44889 15.9031 6.24267 16.12C6.03644 16.3369 5.93333 16.6569 5.93333 17.08C5.93333 17.1476 5.93511 17.2276 5.93867 17.32C5.94222 17.4089 5.95467 17.4996 5.976 17.592L5.76267 17.3573C5.82667 17.2116 5.91378 17.0907 6.024 16.9947C6.13778 16.8951 6.27111 16.8204 6.424 16.7707C6.58044 16.7209 6.74933 16.696 6.93067 16.696C7.176 16.696 7.39467 16.744 7.58667 16.84C7.77867 16.9324 7.93156 17.0658 8.04533 17.24C8.15911 17.4107 8.216 17.6116 8.216 17.8427C8.216 18.088 8.15556 18.3013 8.03467 18.4827C7.91378 18.664 7.75022 18.8044 7.544 18.904C7.33778 19.0036 7.10667 19.0533 6.85067 19.0533ZM6.81333 18.5093C6.95556 18.5093 7.08178 18.4844 7.192 18.4347C7.30222 18.3813 7.38756 18.3067 7.448 18.2107C7.512 18.1147 7.544 18.0027 7.544 17.8747C7.544 17.6791 7.47644 17.5244 7.34133 17.4107C7.20622 17.2969 7.02489 17.24 6.79733 17.24C6.648 17.24 6.51644 17.2684 6.40267 17.3253C6.29244 17.3787 6.20356 17.4533 6.136 17.5493C6.072 17.6453 6.04 17.7556 6.04 17.88C6.04 17.9938 6.07022 18.0987 6.13067 18.1947C6.19111 18.2907 6.27822 18.3671 6.392 18.424C6.50933 18.4809 6.64978 18.5093 6.81333 18.5093Z" fill="#414047"/>
</g>
<defs>
<clipPath id="clip0_2048_877">
<rect width="24" height="22.1106" fill="white" transform="translate(2 4)"/>
</clipPath>
</defs>
</svg>

<svg xmlns="http://www.w3.org/2000/svg" width="30" height="30" fill="none" viewBox="0 0 30 30"><g clip-path="url(#a)"><path fill="#fff" d="M11.041 23.491c-4.335-2.4-5.83-8.015-3.338-12.536a9.55 9.55 0 0 1 3.31-3.477l-1.02 2.55a.696.696 0 0 0 1.136.76.7.7 0 0 0 .144-.227l1.57-3.941a8.82 8.82 0 0 1 7.24.58c4.329 2.381 5.824 7.992 3.36 12.49-2.462 4.497-8.073 6.2-12.402 3.801m9.708-17.52a10.18 10.18 0 0 0-8.439-.632L8.184 4.035a.69.69 0 0 0-.87.446.684.684 0 0 0 .481.864l2.713.863a10.9 10.9 0 0 0-3.982 4.104 10.913 10.913 0 0 0 4.249 14.61c4.85 2.69 10.93.685 13.828-4.566 2.898-5.164 1.16-11.615-3.854-14.385"/><path fill="#fff" d="M15.4 17.134a1.7 1.7 0 0 1-1.264.521 1.22 1.22 0 0 1-.835-.243c-.741-1.072-.162-1.739.615-2.4l.174-.156c.463-.429 3.477-2.898 5.216-4.173-1.101 2.04-3.321 5.796-3.9 6.45m4.984-8.148c-.783 0-6.857 5.14-6.909 5.216l-.162.145c-.615.539-2.046 1.797-.73 3.645l.034.047a2.06 2.06 0 0 0 1.513.58 2.63 2.63 0 0 0 1.942-.83 43 43 0 0 0 2.73-4.358c2.242-3.86 2.138-3.987 1.918-4.265a.52.52 0 0 0-.342-.18M7 21a4 4 0 1 0 0-8 4 4 0 0 0 0 8"/><path stroke="#414047" stroke-width="2.115" d="M7 21a4 4 0 1 0 0-8 4 4 0 0 0 0 8Z"/><path fill="#414047" d="M6.85 19.053q-.506 0-.869-.213a1.4 1.4 0 0 1-.554-.63q-.192-.409-.192-1.013 0-.64.229-1.082.235-.443.645-.672.417-.23.955-.23.282 0 .539.059.26.06.442.181l-.256.523a1 1 0 0 0-.336-.139 1.6 1.6 0 0 0-.373-.042q-.528 0-.837.325-.31.325-.31.96 0 .102.006.24.005.134.037.272l-.213-.235q.095-.218.261-.362.17-.15.4-.224.234-.075.507-.075.368 0 .656.144.288.138.458.4.171.256.171.603 0 .367-.181.64-.182.271-.491.421t-.693.15m-.037-.544a.9.9 0 0 0 .379-.074.61.61 0 0 0 .352-.56.57.57 0 0 0-.203-.464q-.202-.171-.544-.171-.223 0-.394.085a.7.7 0 0 0-.267.224.6.6 0 0 0-.096.331q0 .171.09.315.091.144.262.229a.96.96 0 0 0 .421.085"/></g><defs><clipPath id="a"><path fill="#fff" d="M2 4h24v22.111H2z"/></clipPath></defs></svg>
